X: 35364
T: Rosin The Bow
R: jig
M: 6/8
K: Amajor
E|A2B cBA|~e3~f2a|ecA ABc|FAF (~F2E)|
A2B cBA|e3f2a|ecA BcB|ABA A3:|
c|:efe efg|aba agf|ecA ABc|FAF (~F2E)|
[1 efe efg|aba agf|ecA BcB|ABA A3c:|
[2 A2B cBA|e3f2a|ecA BcB|ABA A3||

